X: 1
T: Dancer's Favourite, The
M: 4/4
L: 1/8
R: reel
K: Amix
cd |eA ~A2 gfed|ecAc BAGB|AE ~E2 G3 A|BE~E2 GBdf|eA ~A2 gfed|ecAc BGEG
|1Bd~d2 efge|dBGB cA:|2Bdfd efge|dBGB A2|:BA|
M:6/4GBAB dGeG dG~G3|M:4/4 L:1/8dGeG d~G3|M:6/4
~A3 c efec ~A3 c|M:4/4 L:1/8efec dcBA|M:6/4GBAB dGeG dG ~G3 |M:4/4 L:1/8dGeG
 dG~G3|1Bd~d2 efge|dBGB cA:|2Bdfd efge|dBGB A2||
